images/bus-vehicle.svg

<?xml version="1.0" encoding="UTF-8"?>
<!-- Generator: Adobe Illustrator 18.1.1, SVG Export Plug-In . SVG Version: 6.00 Build 0)  -->
<svg width="50" height="80" version="1.1" viewBox="0 2 50 50" xml:space="preserve" xmlns="http://www.w3.org/2000/svg">
<g transform="translate(2.8245,2.8245)" fill="#fff" stroke="#ff3f00" stroke-width="2">
	<path d="m35.633 0h-26.915c-2.765 0-5.009 2.438-5.009 5.442v29.251c0 1.994 0.992 3.733 2.464 4.682v3.122c0 1.024 1.658 1.854 3.703 1.854 2.046 0 3.704-0.829 3.704-1.854v-2.36h4.535v-7e-3h9.373v7e-3h3.479v2.36c0 1.024 1.658 1.854 3.703 1.854s3.703-0.829 3.703-1.854v-3.252c1.364-0.972 2.269-2.646 2.269-4.552v-29.251c0-3.004-2.243-5.442-5.009-5.442zm-21.242 2.324h15.569v1.512h-15.569zm-6.706 28.957v-3.635h9.826v3.635zm10.43 8.394v-2.882h9.373v2.882zm19.049-8.394h-9.827v-3.635h9.827zm0.433-12.493c0 0.373-0.652 0.676-1.459 0.676h-27.925c-0.806 0-1.458-0.303-1.458-0.676v-12.917c0-0.374 0.652-0.673 1.458-0.673h27.925c0.807 0 1.459 0.299 1.459 0.673z" fill="#fff" stroke="#ff3f00" stroke-width="2">
	<animateTransform
         attributeName="transform"
         begin="0s"
         dur="0.5s"
         from="0 0"
         repeatCount="indefinite"
         to="0 5"
         type="translate" />
    </path>
</g>
</svg>

<?xml version="1.0" encoding="UTF-8" standalone="no"?>
<!-- Generator: Adobe Illustrator 18.1.1, SVG Export Plug-In . SVG Version: 6.00 Build 0)  -->

<svg
   xmlns:dc="http://purl.org/dc/elements/1.1/"
   xmlns:cc="http://creativecommons.org/ns#"
   xmlns:rdf="http://www.w3.org/1999/02/22-rdf-syntax-ns#"
   xmlns:svg="http://www.w3.org/2000/svg"
   xmlns="http://www.w3.org/2000/svg"
   xmlns:sodipodi="http://sodipodi.sourceforge.net/DTD/sodipodi-0.dtd"
   xmlns:inkscape="http://www.inkscape.org/namespaces/inkscape"
   version="1.1"
   id="Capa_1"
   x="0px"
   y="0px"
   viewBox="0 0 44.351 44.351"
   style="enable-background:new 0 0 44.351 44.351;"
   xml:space="preserve"
   sodipodi:docname="bus-vehicle.svg"
   inkscape:version="0.92.3 (2405546, 2018-03-11)"><metadata
   id="metadata2421"><rdf:RDF><cc:Work
       rdf:about=""><dc:format>image/svg+xml</dc:format><dc:type
         rdf:resource="http://purl.org/dc/dcmitype/StillImage" /><dc:title></dc:title></cc:Work></rdf:RDF></metadata><defs
   id="defs2419" /><sodipodi:namedview
   pagecolor="#ffffff"
   bordercolor="#666666"
   borderopacity="1"
   objecttolerance="10"
   gridtolerance="10"
   guidetolerance="10"
   inkscape:pageopacity="0"
   inkscape:pageshadow="2"
   inkscape:window-width="1920"
   inkscape:window-height="1013"
   id="namedview2417"
   showgrid="false"
   inkscape:zoom="5.3211876"
   inkscape:cx="22.175501"
   inkscape:cy="22.175501"
   inkscape:window-x="-9"
   inkscape:window-y="-9"
   inkscape:window-maximized="1"
   inkscape:current-layer="Capa_1" />
<g
   id="g2384"
   style="fill:#ff6347">
	<path
   style="fill:#ff6347"
   d="M35.633,0H8.718C5.953,0,3.709,2.438,3.709,5.442v29.251c0,1.994,0.992,3.733,2.464,4.682v3.122   c0,1.024,1.658,1.854,3.703,1.854c2.046,0,3.704-0.829,3.704-1.854v-2.36h4.535V40.13h9.373v0.007h3.479v2.36   c0,1.024,1.658,1.854,3.703,1.854s3.703-0.829,3.703-1.854v-3.252c1.364-0.972,2.269-2.646,2.269-4.552V5.442   C40.642,2.438,38.399,0,35.633,0z M14.391,2.324H29.96v1.512H14.391V2.324z M7.685,31.281v-3.635h9.826v3.635H7.685z    M18.115,39.675v-2.882h9.373v2.882H18.115z M37.164,31.281h-9.827v-3.635h9.827V31.281z M37.597,18.788   c0,0.373-0.652,0.676-1.459,0.676H8.213c-0.806,0-1.458-0.303-1.458-0.676V5.871c0-0.374,0.652-0.673,1.458-0.673h27.925   c0.807,0,1.459,0.299,1.459,0.673V18.788z"
   id="path2382" />
</g>
<g
   id="g2386">
</g>
<g
   id="g2388">
</g>
<g
   id="g2390">
</g>
<g
   id="g2392">
</g>
<g
   id="g2394">
</g>
<g
   id="g2396">
</g>
<g
   id="g2398">
</g>
<g
   id="g2400">
</g>
<g
   id="g2402">
</g>
<g
   id="g2404">
</g>
<g
   id="g2406">
</g>
<g
   id="g2408">
</g>
<g
   id="g2410">
</g>
<g
   id="g2412">
</g>
<g
   id="g2414">
</g>
</svg>
